en/template-builder/_images/templates/images.svg

<svg width="121" height="120" viewBox="0 0 121 120" fill="none" xmlns="http://www.w3.org/2000/svg">
<path fill-rule="evenodd" clip-rule="evenodd" d="M110.007 65.9998L110.007 106C110.007 108.2 108.215 110 106.012 110L13.9932 110C11.7906 110 9.99857 108.2 9.99857 106L9.99857 65.9997C9.99857 63.7997 11.7906 61.9997 13.9932 61.9997L106.012 61.9998C108.215 61.9998 110.007 63.7998 110.007 65.9998Z" fill="url(#paint0_linear_121_6726)"/>
<path d="M26.38 103L50.004 76L74.004 102L84.004 92L94.9613 102.96" stroke="#0064FF" stroke-width="2" stroke-miterlimit="79.8403" stroke-linecap="round" stroke-linejoin="round"/>
<path d="M72.9533 77.9867C72.9533 75.2179 75.2086 72.9733 77.9907 72.9733C80.7727 72.9733 83.028 75.2179 83.028 77.9867C83.028 80.7555 80.7727 83 77.9907 83C75.2086 83 72.9533 80.7555 72.9533 77.9867Z" stroke="#0064FF" stroke-width="2" stroke-miterlimit="79.8403" stroke-linecap="round"/>
<path fill-rule="evenodd" clip-rule="evenodd" d="M110.007 14L110.007 54C110.007 56.2 108.215 58 106.012 58L13.9933 58C11.7906 58 9.99863 56.2 9.99863 54L9.99863 14C9.99863 11.8 11.7906 9.99999 13.9933 9.99999L106.012 10C108.215 10 110.007 11.8 110.007 14Z" fill="url(#paint1_linear_121_6726)"/>
<path d="M26.38 51L50.004 24L74.9613 50.96L95.004 51" stroke="#0064FF" stroke-width="2" stroke-miterlimit="79.8403" stroke-linecap="round" stroke-linejoin="round"/>
<path d="M73.5 26.5C73.5 23.7386 75.7386 21.5 78.5 21.5C81.2615 21.5 83.5 23.7386 83.5 26.5C83.5 29.2614 81.2615 31.5 78.5 31.5C75.7386 31.5 73.5 29.2614 73.5 26.5Z" stroke="#0064FF" stroke-width="2" stroke-miterlimit="79.8403" stroke-linecap="round"/>
<defs>
<linearGradient id="paint0_linear_121_6726" x1="60.0146" y1="29.4998" x2="60.0146" y2="123.5" gradientUnits="userSpaceOnUse">
<stop offset="0.02" stop-color="#0064FF"/>
<stop offset="0.06" stop-color="#0064FF" stop-opacity="0.86"/>
<stop offset="0.11" stop-color="#0064FF" stop-opacity="0.72"/>
<stop offset="0.17" stop-color="#0064FF" stop-opacity="0.59"/>
<stop offset="0.23" stop-color="#0064FF" stop-opacity="0.48"/>
<stop offset="0.3" stop-color="#0064FF" stop-opacity="0.4"/>
<stop offset="0.38" stop-color="#0064FF" stop-opacity="0.33"/>
<stop offset="0.48" stop-color="#0064FF" stop-opacity="0.28"/>
<stop offset="0.61" stop-color="#0064FF" stop-opacity="0.26"/>
<stop offset="1" stop-color="#0064FF" stop-opacity="0.25"/>
</linearGradient>
<linearGradient id="paint1_linear_121_6726" x1="60.0147" y1="3.99976" x2="60.0147" y2="211" gradientUnits="userSpaceOnUse">
<stop offset="0.02" stop-color="#0064FF"/>
<stop offset="0.06" stop-color="#0064FF" stop-opacity="0.86"/>
<stop offset="0.11" stop-color="#0064FF" stop-opacity="0.72"/>
<stop offset="0.17" stop-color="#0064FF" stop-opacity="0.59"/>
<stop offset="0.23" stop-color="#0064FF" stop-opacity="0.48"/>
<stop offset="0.3" stop-color="#0064FF" stop-opacity="0.4"/>
<stop offset="0.38" stop-color="#0064FF" stop-opacity="0.33"/>
<stop offset="0.48" stop-color="#0064FF" stop-opacity="0.28"/>
<stop offset="0.61" stop-color="#0064FF" stop-opacity="0.26"/>
<stop offset="0.777778" stop-color="#0064FF" stop-opacity="0.255698"/>
<stop offset="1" stop-color="#0064FF" stop-opacity="0.25"/>
</linearGradient>
</defs>
</svg>

<svg xmlns="http://www.w3.org/2000/svg" width="121" height="120" fill="none"><path fill="url(#a)" fill-rule="evenodd" d="M110.007 66v40c0 2.2-1.792 4-3.995 4H13.993A4.005 4.005 0 0 1 10 106V66c0-2.2 1.792-4 3.994-4h92.019c2.203 0 3.995 1.8 3.995 4Z" clip-rule="evenodd"/><path stroke="#0064FF" stroke-linecap="round" stroke-linejoin="round" stroke-miterlimit="79.84" stroke-width="2" d="m26.38 103 23.624-27 24 26 10-10 10.957 10.96"/><path stroke="#0064FF" stroke-linecap="round" stroke-miterlimit="79.84" stroke-width="2" d="M72.953 77.987c0-2.77 2.256-5.014 5.038-5.014 2.782 0 5.037 2.245 5.037 5.014S80.773 83 77.991 83s-5.038-2.245-5.038-5.013Z"/><path fill="url(#b)" fill-rule="evenodd" d="M110.007 14v40c0 2.2-1.792 4-3.995 4H13.993A4.005 4.005 0 0 1 10 54V14c0-2.2 1.792-4 3.994-4h92.019c2.203 0 3.995 1.8 3.995 4Z" clip-rule="evenodd"/><path stroke="#0064FF" stroke-linecap="round" stroke-linejoin="round" stroke-miterlimit="79.84" stroke-width="2" d="m26.38 51 23.624-27 24.957 26.96 20.043.04"/><path stroke="#0064FF" stroke-linecap="round" stroke-miterlimit="79.84" stroke-width="2" d="M73.5 26.5a5 5 0 1 1 10 0 5 5 0 0 1-10 0Z"/><defs><linearGradient id="a" x1="60.015" x2="60.015" y1="29.5" y2="123.5" gradientUnits="userSpaceOnUse"><stop offset=".02" stop-color="#0064FF"/><stop offset=".06" stop-color="#0064FF" stop-opacity=".86"/><stop offset=".11" stop-color="#0064FF" stop-opacity=".72"/><stop offset=".17" stop-color="#0064FF" stop-opacity=".59"/><stop offset=".23" stop-color="#0064FF" stop-opacity=".48"/><stop offset=".3" stop-color="#0064FF" stop-opacity=".4"/><stop offset=".38" stop-color="#0064FF" stop-opacity=".33"/><stop offset=".48" stop-color="#0064FF" stop-opacity=".28"/><stop offset=".61" stop-color="#0064FF" stop-opacity=".26"/><stop offset="1" stop-color="#0064FF" stop-opacity=".25"/></linearGradient><linearGradient id="b" x1="60.015" x2="60.015" y1="4" y2="211" gradientUnits="userSpaceOnUse"><stop offset=".02" stop-color="#0064FF"/><stop offset=".06" stop-color="#0064FF" stop-opacity=".86"/><stop offset=".11" stop-color="#0064FF" stop-opacity=".72"/><stop offset=".17" stop-color="#0064FF" stop-opacity=".59"/><stop offset=".23" stop-color="#0064FF" stop-opacity=".48"/><stop offset=".3" stop-color="#0064FF" stop-opacity=".4"/><stop offset=".38" stop-color="#0064FF" stop-opacity=".33"/><stop offset=".48" stop-color="#0064FF" stop-opacity=".28"/><stop offset=".61" stop-color="#0064FF" stop-opacity=".26"/><stop offset=".778" stop-color="#0064FF" stop-opacity=".256"/><stop offset="1" stop-color="#0064FF" stop-opacity=".25"/></linearGradient></defs></svg>
